docs/.gitbook/assets/icon-game-controller-16@dark.svg

<svg width="32" height="32" viewBox="0 0 16 16" fill="none" xmlns="http://www.w3.org/2000/svg">
<rect x="0" y="0" width="16" height="16" fill="#181c1f"/>
<path fill-rule="evenodd" clip-rule="evenodd" d="M7.99999 1C8.4142 1 8.74999 1.33579 8.74999 1.75V3.00234C11.6585 3.08237 14.1164 5.21137 14.4686 8.06712L14.9815 12.2255C15.1672 13.7304 13.9525 15 12.459 15C11.3426 15 10.3363 14.2844 10.018 13.2094L9.78243 12.4134L9.77968 12.4044C9.76991 12.4039 9.7586 12.4034 9.74562 12.4032C9.63113 12.4015 9.49079 12.4176 9.26298 12.4445C9.05537 12.469 8.79023 12.5 8.50912 12.5H7.49086C7.20975 12.5 6.94461 12.469 6.73699 12.4445C6.50919 12.4176 6.36884 12.4015 6.25436 12.4032C6.24138 12.4034 6.23006 12.4039 6.22029 12.4044L6.21755 12.4134L5.98194 13.2094C5.6637 14.2844 4.65734 15 3.54096 15C2.0475 15 0.832812 13.7304 1.01843 12.2255L1.53134 8.06712C1.88358 5.21137 4.34151 3.08237 7.24999 3.00234V1.75C7.24999 1.33579 7.58578 1 7.99999 1ZM7.99999 4.5H7.41985C5.15354 4.5 3.28142 6.13185 3.02006 8.25075L2.50715 12.4092C2.4391 12.9608 2.8886 13.5 3.54096 13.5C4.02362 13.5 4.42258 13.1925 4.54364 12.7836L4.77925 11.9877C4.87979 11.648 5.06585 11.3428 5.37702 11.1398C5.67223 10.9472 5.98959 10.9071 6.23163 10.9034C6.45218 10.9 6.68674 10.9279 6.87382 10.9502L6.87383 10.9502H6.87384L6.91293 10.9548C7.12592 10.98 7.30936 11 7.49086 11H8.50912C8.69061 11 8.87406 10.98 9.08705 10.9548L9.12614 10.9502H9.12615C9.31322 10.9279 9.54779 10.9 9.76835 10.9034C10.0104 10.9071 10.3277 10.9472 10.623 11.1398C10.9341 11.3428 11.1202 11.648 11.2207 11.9877L11.4563 12.7836C11.5774 13.1925 11.9764 13.5 12.459 13.5C13.1114 13.5 13.5609 12.9608 13.4928 12.4092L12.9799 8.25075C12.7186 6.13186 10.8464 4.5 8.58013 4.5H7.99999ZM5 8C5 7.44772 5.44772 7 6 7C6.55228 7 7 7.44772 7 8C7 8.55228 6.55228 9 6 9C5.44772 9 5 8.55228 5 8ZM10 7C9.44771 7 9 7.44772 9 8C9 8.55228 9.44771 9 10 9C10.5523 9 11 8.55228 11 8C11 7.44772 10.5523 7 10 7Z" fill="#fff"/>
</svg>

<svg xmlns="http://www.w3.org/2000/svg" width="32" height="32" fill="none" viewBox="0 0 16 16"><path fill="#181c1f" d="M0 0h16v16H0z"/><path fill="#fff" fill-rule="evenodd" d="M8 1a.75.75 0 0 1 .75.75v1.252c2.909.08 5.366 2.21 5.719 5.065l.513 4.159C15.167 13.73 13.952 15 12.459 15c-1.116 0-2.123-.716-2.441-1.79l-.236-.797-.002-.009h-.034a4 4 0 0 0-.483.04 6 6 0 0 1-.754.056H7.491c-.281 0-.546-.031-.754-.056a4 4 0 0 0-.517-.04l-.002.01-.236.795C5.664 14.284 4.657 15 3.54 15c-1.493 0-2.708-1.27-2.523-2.774l.513-4.159c.353-2.856 2.81-4.985 5.719-5.065V1.75A.75.75 0 0 1 8 1m0 3.5h-.58c-2.266 0-4.139 1.632-4.4 3.75l-.513 4.16c-.068.55.382 1.09 1.034 1.09.483 0 .882-.307 1.003-.716l.235-.796c.1-.34.287-.645.598-.848.295-.193.613-.233.855-.237.22-.003.455.025.642.047l.039.005c.213.025.396.045.578.045h1.018c.182 0 .365-.02.578-.045l.04-.005c.186-.022.42-.05.641-.047.242.004.56.044.855.237.311.203.497.508.598.848l.235.796c.121.409.52.716 1.003.716.652 0 1.102-.54 1.034-1.09l-.513-4.16c-.261-2.118-2.134-3.75-4.4-3.75zM5 8a1 1 0 1 1 2 0 1 1 0 0 1-2 0m5-1a1 1 0 1 0 0 2 1 1 0 0 0 0-2" clip-rule="evenodd"/></svg>
